app/assets/images/payment_icons/anyday.svg

<svg xmlns="http://www.w3.org/2000/svg" width="38" height="24" viewBox="0 0 38 24" fill="none" aria-labelledby="pi-anyday" role="img"><title id="pi-anyday">Anyday</title><rect width="38" height="24" fill="white"/><path d="M5.713 14.237H4.391L5.141 12.097C4.80207 11.8425 4.38232 11.7197 3.95969 11.7514C3.53706 11.783 3.14027 11.9669 2.843 12.269L2 11.416C2.45461 10.9537 3.04962 10.6552 3.69195 10.5671C4.33428 10.479 4.9877 10.6063 5.55 10.929L6.754 7.5H8.03L10.393 14.237H9.07L8.611 12.896C8.22746 13.0647 7.81223 13.1494 7.39325 13.1442C6.97427 13.139 6.56125 13.0442 6.182 12.866L5.713 14.236V14.237ZM6.575 11.717C6.82536 11.8568 7.10622 11.9329 7.39288 11.9386C7.67955 11.9444 7.96324 11.8796 8.219 11.75L7.392 9.327L6.575 11.717V11.717ZM22.705 14.329C23.299 14.329 23.782 14.079 24.083 13.72V14.056C24.083 14.156 24.163 14.236 24.262 14.236H25.332V7.5H24.083V10.075C23.783 9.752 23.317 9.53 22.724 9.53C21.694 9.53 20.507 10.296 20.507 11.93C20.507 13.554 21.739 14.33 22.706 14.33L22.705 14.329ZM22.952 13.166C22.259 13.166 21.73 12.631 21.73 11.92C21.73 11.21 22.259 10.684 22.952 10.684C23.627 10.684 24.12 11.238 24.12 11.92C24.12 12.603 23.627 13.166 22.952 13.166ZM28.032 14.329C28.626 14.329 29.109 14.079 29.41 13.72V14.056C29.41 14.156 29.49 14.236 29.589 14.236H30.659V9.624H29.589C29.5414 9.62426 29.4959 9.64335 29.4624 9.67707C29.4288 9.7108 29.41 9.75643 29.41 9.804V10.076C29.109 9.753 28.644 9.531 28.05 9.531C27.02 9.531 25.834 10.297 25.834 11.931C25.834 13.555 27.066 14.331 28.033 14.331L28.032 14.329ZM28.279 13.166C27.586 13.166 27.057 12.631 27.057 11.921C27.057 11.21 27.586 10.684 28.279 10.684C28.954 10.684 29.447 11.238 29.447 11.921C29.447 12.603 28.954 13.166 28.279 13.166ZM13.565 9.442C12.845 9.442 12.297 9.759 11.996 10.128V9.806C11.996 9.706 11.916 9.625 11.818 9.625H10.874V14.241H12.161V11.814C12.161 10.993 12.544 10.513 13.21 10.513C13.857 10.513 14.158 10.937 14.158 11.74V14.241H15.445V11.666C15.445 9.941 14.523 9.442 13.565 9.442V9.442ZM16.497 16.488H17.447C17.643 16.488 17.818 16.368 17.89 16.183L20.468 9.611H19.148L18.078 12.508L16.934 9.611H15.595L17.445 14.108L16.497 16.488ZM32.979 16.5H32.029L32.978 14.12L31.128 9.623H32.466L33.61 12.521L34.68 9.623H36L33.423 16.195C33.3883 16.2847 33.3274 16.3617 33.2482 16.4162C33.1689 16.4706 33.0751 16.4998 32.979 16.5Z" fill="#212930"/></svg>

<svg xmlns="http://www.w3.org/2000/svg" width="38" height="24" fill="none" aria-labelledby="pi-anyday" role="img" viewBox="0 0 38 24"><title id="pi-anyday">Anyday</title><path fill="#fff" d="M0 0h38v24H0z"/><path fill="#212930" d="M5.713 14.237H4.391l.75-2.14a1.75 1.75 0 0 0-2.298.172L2 11.416a2.93 2.93 0 0 1 3.55-.487L6.754 7.5H8.03l2.363 6.737H9.07l-.459-1.341a2.93 2.93 0 0 1-2.429-.03zm.862-2.52a1.75 1.75 0 0 0 1.644.033l-.827-2.423zm16.13 2.612c.594 0 1.077-.25 1.378-.609v.336c0 .1.08.18.179.18h1.07V7.5h-1.249v2.575c-.3-.323-.766-.545-1.359-.545-1.03 0-2.217.766-2.217 2.4 0 1.624 1.232 2.4 2.199 2.4zm.247-1.163c-.693 0-1.222-.535-1.222-1.246 0-.71.529-1.236 1.222-1.236.675 0 1.168.554 1.168 1.236 0 .683-.493 1.246-1.168 1.246m5.08 1.163c.594 0 1.077-.25 1.378-.609v.336c0 .1.08.18.179.18h1.07V9.624h-1.07a.18.18 0 0 0-.179.18v.272c-.301-.323-.766-.545-1.36-.545-1.03 0-2.216.766-2.216 2.4 0 1.624 1.232 2.4 2.199 2.4zm.247-1.163c-.693 0-1.222-.535-1.222-1.245s.529-1.237 1.222-1.237c.675 0 1.168.554 1.168 1.237 0 .682-.493 1.245-1.168 1.245M13.565 9.442c-.72 0-1.268.317-1.569.686v-.322a.18.18 0 0 0-.178-.181h-.944v4.616h1.287v-2.427c0-.821.383-1.301 1.049-1.301.647 0 .948.424.948 1.227v2.501h1.287v-2.575c0-1.725-.922-2.224-1.88-2.224m2.932 7.046h.95c.196 0 .371-.12.443-.305l2.578-6.572h-1.32l-1.07 2.897-1.144-2.897h-1.339l1.85 4.497zm16.482.012h-.95l.949-2.38-1.85-4.497h1.338l1.144 2.898 1.07-2.898H36l-2.577 6.572a.48.48 0 0 1-.444.305"/></svg>
